X:155b
T:Li'l 'Liza Jane
S:Jim Coon to CoMandoList TOW
R:reel
M:2/4
L:1/8
K:D
"D"F (F/ F/) "D"E D|"D"F A "D"A2|"D"B A2 F|"A7"A4|!
"D"F F ("D"E/ E/) D|"D"F A "D"A2|"D"F F2"A7"E|"D"D4:||!
"D"d3A|"G"B2 A2|"D"B A2 F|"A7"A4|!
"D"d3A|"G"B2 A2|"D"F F2"A7" E|"D"D4:||!
